Simply-Red-Circles/scalable/panel/pragha-panel.svg

<svg xmlns="http://www.w3.org/2000/svg" width="24" height="24" id="svg7"><defs id="defs3"><style id="current-color-scheme"/></defs><path d="M15.7 2.3a5.6 5.6 0 0 1-2.42.5 7.76 7.76 0 0 0-5.62 2.37C5.64 7.25 5 9.87 5.93 12.3c.22.57.33 1.14.29 1.27-.06.14-.45.51-.87.85a4.7 4.7 0 0 0-1.7 3.07c-.09.72-.01 1.08.37 1.96.88 1.88 2.83 2.7 4.9 2.03 1.21-.39 2.42-1.76 3.38-3.85.83-1.79.86-1.84 1.76-2.17a7.91 7.91 0 0 0 3.4-2.15 6.64 6.64 0 0 0 1.69-6.33c-.27-1-.49-1.33-1.7-2.61a11.77 11.77 0 0 1-1.54-1.81c-.06-.16-.1-.24-.2-.24zm-3.78 2.43c.7 0 1.24.21 1.38.64.05.13-.15.8-.45 1.45-.78 1.7-1.02 2.65-1.5 5.66-.59 3.73-1.22 5.33-2.5 6.3-.8.6-1.8.66-2.33.11a1.54 1.54 0 0 1-.35-1.65c.15-.49.81-.57 2.03-.73.85-.14 1.46-.73 1.46-1.5 0-.49-.2-.77-.86-1.47-1.03-1.1-1.96-2.13-1.96-3.46a5.19 5.19 0 0 1 5.09-5.35zm2.82 1.21c.24-.03.57.23 1 .75a5.16 5.16 0 0 1-.4 7.07c-.84.78-1.04.82-1.62.41-.34-.24-.4-.46-.4-1.35 0-1.35.46-4.66.83-5.92.16-.61.35-.92.6-.96z" id="path5" color="#fff" fill="#a02c2c" stroke-width="1.21"/></svg>

<?xml version="1.0" encoding="UTF-8" standalone="no"?>
<svg
   xmlns:dc="http://purl.org/dc/elements/1.1/"
   xmlns:cc="http://creativecommons.org/ns#"
   xmlns:rdf="http://www.w3.org/1999/02/22-rdf-syntax-ns#"
   xmlns:svg="http://www.w3.org/2000/svg"
   xmlns="http://www.w3.org/2000/svg"
   xmlns:sodipodi="http://sodipodi.sourceforge.net/DTD/sodipodi-0.dtd"
   xmlns:inkscape="http://www.inkscape.org/namespaces/inkscape"
   width="24"
   height="24"
   id="svg7"
   version="1.1"
   sodipodi:docname="pragha-panel.svg"
   inkscape:version="0.92.4 (5da689c313, 2019-01-14)">
  <metadata
     id="metadata8">
    <rdf:RDF>
      <cc:Work
         rdf:about="">
        <dc:format>image/svg+xml</dc:format>
        <dc:type
           rdf:resource="http://purl.org/dc/dcmitype/StillImage" />
        <dc:title></dc:title>
      </cc:Work>
    </rdf:RDF>
  </metadata>
  <sodipodi:namedview
     pagecolor="#ffffff"
     bordercolor="#666666"
     borderopacity="1"
     objecttolerance="10"
     gridtolerance="10"
     guidetolerance="10"
     inkscape:pageopacity="0"
     inkscape:pageshadow="2"
     inkscape:window-width="1087"
     inkscape:window-height="480"
     id="namedview6"
     showgrid="false"
     inkscape:zoom="9.8333333"
     inkscape:cx="1.0677966"
     inkscape:cy="12"
     inkscape:window-x="0"
     inkscape:window-y="25"
     inkscape:window-maximized="0"
     inkscape:current-layer="svg7" />
  <defs
     id="defs3">
    <style
       id="current-color-scheme" />
  </defs>
  <path
     d="M 15.7,2.3 A 5.6,5.6 0 0 1 13.28,2.8 7.76,7.76 0 0 0 7.66,5.17 C 5.64,7.25 5,9.87 5.93,12.3 c 0.22,0.57 0.33,1.14 0.29,1.27 -0.06,0.14 -0.45,0.51 -0.87,0.85 a 4.7,4.7 0 0 0 -1.7,3.07 c -0.09,0.72 -0.01,1.08 0.37,1.96 0.88,1.88 2.83,2.7 4.9,2.03 1.21,-0.39 2.42,-1.76 3.38,-3.85 0.83,-1.79 0.86,-1.84 1.76,-2.17 a 7.91,7.91 0 0 0 3.4,-2.15 6.64,6.64 0 0 0 1.69,-6.33 c -0.27,-1 -0.49,-1.33 -1.7,-2.61 A 11.77,11.77 0 0 1 15.91,2.56 C 15.85,2.4 15.81,2.32 15.71,2.32 Z m -3.78,2.43 c 0.7,0 1.24,0.21 1.38,0.64 0.05,0.13 -0.15,0.8 -0.45,1.45 -0.78,1.7 -1.02,2.65 -1.5,5.66 -0.59,3.73 -1.22,5.33 -2.5,6.3 -0.8,0.6 -1.8,0.66 -2.33,0.11 A 1.54,1.54 0 0 1 6.17,17.24 C 6.32,16.75 6.98,16.67 8.2,16.51 9.05,16.37 9.66,15.78 9.66,15.01 9.66,14.52 9.46,14.24 8.8,13.54 7.77,12.44 6.84,11.41 6.84,10.08 a 5.19,5.19 0 0 1 5.09,-5.35 z m 2.82,1.21 c 0.24,-0.03 0.57,0.23 1,0.75 a 5.16,5.16 0 0 1 -0.4,7.07 c -0.84,0.78 -1.04,0.82 -1.62,0.41 -0.34,-0.24 -0.4,-0.46 -0.4,-1.35 0,-1.35 0.46,-4.66 0.83,-5.92 0.16,-0.61 0.35,-0.92 0.6,-0.96 z"
     id="path5"
     inkscape:connector-curvature="0"
     style="color:#ffffff;fill:#a02c2c;stroke-width:1.21000004" />
</svg>
